images/3235227.svg

<?xml version="1.0" encoding="UTF-8"?>
<svg xmlns="http://www.w3.org/2000/svg" xmlns:xlink="http://www.w3.org/1999/xlink" width="300pt" height="300pt" viewBox="0 0 300 300" version="1.1">
<defs>
<g>
<symbol overflow="visible" id="glyph0-0">
<path style="stroke:none;" d="M 0.453125 1.59375 L 0.453125 -6.34375 L 4.953125 -6.34375 L 4.953125 1.59375 Z M 0.953125 1.09375 L 4.453125 1.09375 L 4.453125 -5.84375 L 0.953125 -5.84375 Z M 0.953125 1.09375 "/>
</symbol>
<symbol overflow="visible" id="glyph0-1">
<path style="stroke:none;" d="M 3.546875 -5.953125 C 2.898438 -5.953125 2.382812 -5.710938 2 -5.234375 C 1.625 -4.753906 1.4375 -4.101562 1.4375 -3.28125 C 1.4375 -2.445312 1.625 -1.789062 2 -1.3125 C 2.382812 -0.832031 2.898438 -0.59375 3.546875 -0.59375 C 4.191406 -0.59375 4.703125 -0.832031 5.078125 -1.3125 C 5.453125 -1.789062 5.640625 -2.445312 5.640625 -3.28125 C 5.640625 -4.101562 5.453125 -4.753906 5.078125 -5.234375 C 4.703125 -5.710938 4.191406 -5.953125 3.546875 -5.953125 Z M 3.546875 -6.6875 C 4.460938 -6.6875 5.195312 -6.375 5.75 -5.75 C 6.300781 -5.132812 6.578125 -4.3125 6.578125 -3.28125 C 6.578125 -2.238281 6.300781 -1.410156 5.75 -0.796875 C 5.195312 -0.179688 4.460938 0.125 3.546875 0.125 C 2.617188 0.125 1.878906 -0.179688 1.328125 -0.796875 C 0.773438 -1.410156 0.5 -2.238281 0.5 -3.28125 C 0.5 -4.3125 0.773438 -5.132812 1.328125 -5.75 C 1.878906 -6.375 2.617188 -6.6875 3.546875 -6.6875 Z M 3.546875 -6.6875 "/>
</symbol>
<symbol overflow="visible" id="glyph0-2">
<path style="stroke:none;" d="M 0.890625 -6.5625 L 2.078125 -6.5625 L 4.984375 -1.078125 L 4.984375 -6.5625 L 5.84375 -6.5625 L 5.84375 0 L 4.65625 0 L 1.75 -5.484375 L 1.75 0 L 0.890625 0 Z M 0.890625 -6.5625 "/>
</symbol>
</g>
</defs>
<g id="surface50201">
<rect x="0" y="0" width="300" height="300" style="fill:rgb(100%,100%,100%);fill-opacity:1;stroke:none;"/>
<path style="fill:none;stroke-width:1.2;stroke-linecap:butt;stroke-linejoin:miter;stroke:rgb(0%,0%,0%);stroke-opacity:1;stroke-miterlimit:10;" d="M 149.984375 223.953125 L 155.324219 213.167969 "/>
<path style="fill:none;stroke-width:1.2;stroke-linecap:butt;stroke-linejoin:miter;stroke:rgb(100%,0%,0%);stroke-opacity:1;stroke-miterlimit:10;" d="M 155.324219 213.167969 L 160.664062 202.382812 "/>
<path style="fill:none;stroke-width:1.2;stroke-linecap:butt;stroke-linejoin:miter;stroke:rgb(100%,0%,0%);stroke-opacity:1;stroke-miterlimit:10;" d="M 160.664062 202.382812 L 153.992188 192.367188 "/>
<path style="fill:none;stroke-width:1.2;stroke-linecap:butt;stroke-linejoin:miter;stroke:rgb(0%,0%,0%);stroke-opacity:1;stroke-miterlimit:10;" d="M 153.992188 192.367188 L 147.324219 182.351562 "/>
<path style=" stroke:none;fill-rule:nonzero;fill:rgb(100%,100%,100%);fill-opacity:1;" d="M 156.664062 196.882812 L 164.664062 196.882812 L 164.664062 207.882812 L 156.664062 207.882812 Z M 156.664062 196.882812 "/>
<g style="fill:rgb(100%,0%,0%);fill-opacity:1;">
  <use xlink:href="#glyph0-1" x="156.664062" y="205.545898"/>
</g>
<path style="fill:none;stroke-width:1.2;stroke-linecap:butt;stroke-linejoin:miter;stroke:rgb(0%,0%,0%);stroke-opacity:1;stroke-miterlimit:10;" d="M 147.324219 182.351562 L 158 160.785156 "/>
<path style="fill:none;stroke-width:1.2;stroke-linecap:butt;stroke-linejoin:miter;stroke:rgb(0%,0%,0%);stroke-opacity:1;stroke-miterlimit:10;" d="M 158 160.785156 L 151.332031 150.769531 "/>
<path style="fill:none;stroke-width:1.2;stroke-linecap:butt;stroke-linejoin:miter;stroke:rgb(0%,0%,100%);stroke-opacity:1;stroke-miterlimit:10;" d="M 151.332031 150.769531 L 144.660156 140.753906 "/>
<path style="fill:none;stroke-width:1.2;stroke-linecap:butt;stroke-linejoin:miter;stroke:rgb(0%,0%,100%);stroke-opacity:1;stroke-miterlimit:10;" d="M 144.660156 140.753906 L 150 129.96875 "/>
<path style="fill:none;stroke-width:1.2;stroke-linecap:butt;stroke-linejoin:miter;stroke:rgb(0%,0%,0%);stroke-opacity:1;stroke-miterlimit:10;" d="M 150 129.96875 L 155.339844 119.183594 "/>
<path style="fill:none;stroke-width:1.2;stroke-linecap:butt;stroke-linejoin:miter;stroke:rgb(0%,0%,0%);stroke-opacity:1;stroke-miterlimit:10;" d="M 120.644531 142.289062 L 132.652344 141.519531 "/>
<path style="fill:none;stroke-width:1.2;stroke-linecap:butt;stroke-linejoin:miter;stroke:rgb(0%,0%,100%);stroke-opacity:1;stroke-miterlimit:10;" d="M 132.652344 141.519531 L 144.660156 140.753906 "/>
<path style=" stroke:none;fill-rule:nonzero;fill:rgb(100%,100%,100%);fill-opacity:1;" d="M 141.660156 135.253906 L 148.660156 135.253906 L 148.660156 146.253906 L 141.660156 146.253906 Z M 141.660156 135.253906 "/>
<g style="fill:rgb(0%,0%,100%);fill-opacity:1;">
  <use xlink:href="#glyph0-2" x="141.660156" y="143.916992"/>
</g>
<path style="fill:none;stroke-width:1.2;stroke-linecap:butt;stroke-linejoin:miter;stroke:rgb(0%,0%,0%);stroke-opacity:1;stroke-miterlimit:10;" d="M 155.339844 119.183594 L 167.347656 118.414062 "/>
<path style="fill:none;stroke-width:1.2;stroke-linecap:butt;stroke-linejoin:miter;stroke:rgb(0%,0%,100%);stroke-opacity:1;stroke-miterlimit:10;" d="M 167.347656 118.414062 L 179.355469 117.648438 "/>
<path style="fill:none;stroke-width:1.2;stroke-linecap:butt;stroke-linejoin:miter;stroke:rgb(0%,0%,0%);stroke-opacity:1;stroke-miterlimit:10;" d="M 157.378906 113.378906 L 166.984375 112.765625 "/>
<path style="fill:none;stroke-width:1.2;stroke-linecap:butt;stroke-linejoin:miter;stroke:rgb(0%,0%,100%);stroke-opacity:1;stroke-miterlimit:10;" d="M 166.984375 112.765625 L 176.59375 112.148438 "/>
<path style="fill:none;stroke-width:1.2;stroke-linecap:butt;stroke-linejoin:miter;stroke:rgb(0%,0%,0%);stroke-opacity:1;stroke-miterlimit:10;" d="M 142 99.152344 L 155.339844 119.183594 "/>
<path style="fill:none;stroke-width:1.2;stroke-linecap:butt;stroke-linejoin:miter;stroke:rgb(0%,0%,100%);stroke-opacity:1;stroke-miterlimit:10;" d="M 179.355469 117.648438 L 184.695312 106.863281 "/>
<path style="fill:none;stroke-width:1.2;stroke-linecap:butt;stroke-linejoin:miter;stroke:rgb(0%,0%,0%);stroke-opacity:1;stroke-miterlimit:10;" d="M 184.695312 106.863281 L 190.035156 96.078125 "/>
<path style=" stroke:none;fill-rule:nonzero;fill:rgb(100%,100%,100%);fill-opacity:1;" d="M 176.355469 112.148438 L 183.355469 112.148438 L 183.355469 123.148438 L 176.355469 123.148438 Z M 176.355469 112.148438 "/>
<g style="fill:rgb(0%,0%,100%);fill-opacity:1;">
  <use xlink:href="#glyph0-2" x="176.355469" y="120.811523"/>
</g>
<path style="fill:none;stroke-width:1.2;stroke-linecap:butt;stroke-linejoin:miter;stroke:rgb(0%,0%,0%);stroke-opacity:1;stroke-miterlimit:10;" d="M 190.035156 96.078125 L 183.363281 86.0625 "/>
<path style="fill:none;stroke-width:1.2;stroke-linecap:butt;stroke-linejoin:miter;stroke:rgb(0%,0%,100%);stroke-opacity:1;stroke-miterlimit:10;" d="M 183.363281 86.0625 L 176.695312 76.046875 "/>
<path style="fill:none;stroke-width:1.2;stroke-linecap:butt;stroke-linejoin:miter;stroke:rgb(0%,0%,0%);stroke-opacity:1;stroke-miterlimit:10;" d="M 183.988281 97.214844 L 178.652344 89.203125 "/>
<path style="fill:none;stroke-width:1.2;stroke-linecap:butt;stroke-linejoin:miter;stroke:rgb(0%,0%,100%);stroke-opacity:1;stroke-miterlimit:10;" d="M 178.652344 89.203125 L 173.316406 81.1875 "/>
<path style="fill:none;stroke-width:1.2;stroke-linecap:butt;stroke-linejoin:miter;stroke:rgb(0%,0%,0%);stroke-opacity:1;stroke-miterlimit:10;" d="M 190.035156 96.078125 L 202.042969 95.3125 "/>
<path style="fill:none;stroke-width:1.2;stroke-linecap:butt;stroke-linejoin:miter;stroke:rgb(100%,0%,0%);stroke-opacity:1;stroke-miterlimit:10;" d="M 202.042969 95.3125 L 214.050781 94.542969 "/>
<path style="fill:none;stroke-width:1.2;stroke-linecap:butt;stroke-linejoin:miter;stroke:rgb(0%,0%,100%);stroke-opacity:1;stroke-miterlimit:10;" d="M 176.695312 76.046875 L 164.6875 76.816406 "/>
<path style="fill:none;stroke-width:1.2;stroke-linecap:butt;stroke-linejoin:miter;stroke:rgb(0%,0%,0%);stroke-opacity:1;stroke-miterlimit:10;" d="M 164.6875 76.816406 L 152.675781 77.585938 "/>
<path style=" stroke:none;fill-rule:nonzero;fill:rgb(100%,100%,100%);fill-opacity:1;" d="M 173.695312 70.546875 L 180.695312 70.546875 L 180.695312 81.546875 L 173.695312 81.546875 Z M 173.695312 70.546875 "/>
<g style="fill:rgb(0%,0%,100%);fill-opacity:1;">
  <use xlink:href="#glyph0-2" x="173.695312" y="79.209961"/>
</g>
<path style="fill:none;stroke-width:1.2;stroke-linecap:butt;stroke-linejoin:miter;stroke:rgb(0%,0%,0%);stroke-opacity:1;stroke-miterlimit:10;" d="M 152.675781 77.585938 L 142 99.152344 "/>
<path style="fill:none;stroke-width:1.2;stroke-linecap:butt;stroke-linejoin:miter;stroke:rgb(0%,0%,0%);stroke-opacity:1;stroke-miterlimit:10;" d="M 156.683594 82.253906 L 148.140625 99.507812 "/>
<path style="fill:none;stroke-width:1.2;stroke-linecap:butt;stroke-linejoin:miter;stroke:rgb(0%,0%,0%);stroke-opacity:1;stroke-miterlimit:10;" d="M 142 99.152344 L 129.992188 99.921875 "/>
<path style="fill:none;stroke-width:1.2;stroke-linecap:butt;stroke-linejoin:miter;stroke:rgb(0%,0%,100%);stroke-opacity:1;stroke-miterlimit:10;" d="M 129.992188 99.921875 L 117.980469 100.6875 "/>
<path style="fill:none;stroke-width:1.2;stroke-linecap:butt;stroke-linejoin:miter;stroke:rgb(0%,0%,100%);stroke-opacity:1;stroke-miterlimit:10;" d="M 117.980469 100.6875 L 112.640625 111.472656 "/>
<path style="fill:none;stroke-width:1.2;stroke-linecap:butt;stroke-linejoin:miter;stroke:rgb(0%,0%,0%);stroke-opacity:1;stroke-miterlimit:10;" d="M 112.640625 111.472656 L 107.304688 122.257812 "/>
<path style="fill:none;stroke-width:1.2;stroke-linecap:butt;stroke-linejoin:miter;stroke:rgb(0%,0%,100%);stroke-opacity:1;stroke-miterlimit:10;" d="M 121.988281 105.359375 L 117.71875 113.984375 "/>
<path style="fill:none;stroke-width:1.2;stroke-linecap:butt;stroke-linejoin:miter;stroke:rgb(0%,0%,0%);stroke-opacity:1;stroke-miterlimit:10;" d="M 117.71875 113.984375 L 113.445312 122.613281 "/>
<path style=" stroke:none;fill-rule:nonzero;fill:rgb(100%,100%,100%);fill-opacity:1;" d="M 114.980469 95.1875 L 121.980469 95.1875 L 121.980469 106.1875 L 114.980469 106.1875 Z M 114.980469 95.1875 "/>
<g style="fill:rgb(0%,0%,100%);fill-opacity:1;">
  <use xlink:href="#glyph0-2" x="114.980469" y="103.850586"/>
</g>
<path style="fill:none;stroke-width:1.2;stroke-linecap:butt;stroke-linejoin:miter;stroke:rgb(0%,0%,0%);stroke-opacity:1;stroke-miterlimit:10;" d="M 107.304688 122.257812 L 120.644531 142.289062 "/>
<path style="fill:none;stroke-width:1.2;stroke-linecap:butt;stroke-linejoin:miter;stroke:rgb(0%,0%,0%);stroke-opacity:1;stroke-miterlimit:10;" d="M 107.304688 122.257812 L 83.285156 123.792969 "/>
<path style="fill:none;stroke-width:1.2;stroke-linecap:butt;stroke-linejoin:miter;stroke:rgb(0%,0%,0%);stroke-opacity:1;stroke-miterlimit:10;" d="M 118.105469 141.03125 L 112.765625 151.816406 "/>
<path style="fill:none;stroke-width:1.2;stroke-linecap:butt;stroke-linejoin:miter;stroke:rgb(100%,0%,0%);stroke-opacity:1;stroke-miterlimit:10;" d="M 112.765625 151.816406 L 107.425781 162.601562 "/>
<path style="fill:none;stroke-width:1.2;stroke-linecap:butt;stroke-linejoin:miter;stroke:rgb(0%,0%,0%);stroke-opacity:1;stroke-miterlimit:10;" d="M 123.179688 143.546875 L 117.839844 154.328125 "/>
<path style="fill:none;stroke-width:1.2;stroke-linecap:butt;stroke-linejoin:miter;stroke:rgb(100%,0%,0%);stroke-opacity:1;stroke-miterlimit:10;" d="M 117.839844 154.328125 L 112.503906 165.113281 "/>
<path style=" stroke:none;fill-rule:nonzero;fill:rgb(100%,100%,100%);fill-opacity:1;" d="M 101.964844 158.359375 L 109.964844 158.359375 L 109.964844 169.359375 L 101.964844 169.359375 Z M 101.964844 158.359375 "/>
<g style="fill:rgb(100%,0%,0%);fill-opacity:1;">
  <use xlink:href="#glyph0-1" x="101.964844" y="167.022461"/>
</g>
<path style="fill:none;stroke-width:1.2;stroke-linecap:butt;stroke-linejoin:miter;stroke:rgb(0%,0%,0%);stroke-opacity:1;stroke-miterlimit:10;" d="M 83.285156 123.792969 L 69.945312 103.761719 "/>
<path style="fill:none;stroke-width:1.2;stroke-linecap:butt;stroke-linejoin:miter;stroke:rgb(0%,0%,0%);stroke-opacity:1;stroke-miterlimit:10;" d="M 77.238281 124.929688 L 66.566406 108.90625 "/>
<path style="fill:none;stroke-width:1.2;stroke-linecap:butt;stroke-linejoin:miter;stroke:rgb(0%,0%,0%);stroke-opacity:1;stroke-miterlimit:10;" d="M 72.609375 145.363281 L 83.285156 123.792969 "/>
<path style="fill:none;stroke-width:1.2;stroke-linecap:butt;stroke-linejoin:miter;stroke:rgb(0%,0%,0%);stroke-opacity:1;stroke-miterlimit:10;" d="M 69.945312 103.761719 L 45.929688 105.300781 "/>
<path style="fill:none;stroke-width:1.2;stroke-linecap:butt;stroke-linejoin:miter;stroke:rgb(0%,0%,0%);stroke-opacity:1;stroke-miterlimit:10;" d="M 45.929688 105.300781 L 35.25 126.867188 "/>
<path style="fill:none;stroke-width:1.2;stroke-linecap:butt;stroke-linejoin:miter;stroke:rgb(0%,0%,0%);stroke-opacity:1;stroke-miterlimit:10;" d="M 49.933594 109.96875 L 41.394531 127.222656 "/>
<path style="fill:none;stroke-width:1.2;stroke-linecap:butt;stroke-linejoin:miter;stroke:rgb(0%,0%,0%);stroke-opacity:1;stroke-miterlimit:10;" d="M 35.25 126.867188 L 48.589844 146.898438 "/>
<path style="fill:none;stroke-width:1.2;stroke-linecap:butt;stroke-linejoin:miter;stroke:rgb(0%,0%,0%);stroke-opacity:1;stroke-miterlimit:10;" d="M 48.589844 146.898438 L 72.609375 145.363281 "/>
<path style="fill:none;stroke-width:1.2;stroke-linecap:butt;stroke-linejoin:miter;stroke:rgb(0%,0%,0%);stroke-opacity:1;stroke-miterlimit:10;" d="M 50.628906 141.09375 L 69.84375 139.867188 "/>
<path style="fill:none;stroke-width:1.2;stroke-linecap:butt;stroke-linejoin:miter;stroke:rgb(100%,0%,0%);stroke-opacity:1;stroke-miterlimit:10;" d="M 214.050781 94.542969 L 220.722656 104.558594 "/>
<path style="fill:none;stroke-width:1.2;stroke-linecap:butt;stroke-linejoin:miter;stroke:rgb(0%,0%,0%);stroke-opacity:1;stroke-miterlimit:10;" d="M 220.722656 104.558594 L 227.390625 114.574219 "/>
<path style=" stroke:none;fill-rule:nonzero;fill:rgb(100%,100%,100%);fill-opacity:1;" d="M 210.050781 89.042969 L 218.050781 89.042969 L 218.050781 100.042969 L 210.050781 100.042969 Z M 210.050781 89.042969 "/>
<g style="fill:rgb(100%,0%,0%);fill-opacity:1;">
  <use xlink:href="#glyph0-1" x="210.050781" y="97.706055"/>
</g>
<path style="fill:none;stroke-width:1.2;stroke-linecap:butt;stroke-linejoin:miter;stroke:rgb(0%,0%,0%);stroke-opacity:1;stroke-miterlimit:10;" d="M 227.390625 114.574219 L 216.714844 136.140625 "/>
<path style="fill:none;stroke-width:1.2;stroke-linecap:butt;stroke-linejoin:miter;stroke:rgb(0%,0%,0%);stroke-opacity:1;stroke-miterlimit:10;" d="M 231.398438 119.242188 L 222.855469 136.496094 "/>
<path style="fill:none;stroke-width:1.2;stroke-linecap:butt;stroke-linejoin:miter;stroke:rgb(0%,0%,0%);stroke-opacity:1;stroke-miterlimit:10;" d="M 251.410156 113.035156 L 227.390625 114.574219 "/>
<path style="fill:none;stroke-width:1.2;stroke-linecap:butt;stroke-linejoin:miter;stroke:rgb(0%,0%,0%);stroke-opacity:1;stroke-miterlimit:10;" d="M 216.714844 136.140625 L 230.054688 156.175781 "/>
<path style="fill:none;stroke-width:1.2;stroke-linecap:butt;stroke-linejoin:miter;stroke:rgb(0%,0%,0%);stroke-opacity:1;stroke-miterlimit:10;" d="M 230.054688 156.175781 L 254.070312 154.636719 "/>
<path style="fill:none;stroke-width:1.2;stroke-linecap:butt;stroke-linejoin:miter;stroke:rgb(0%,0%,0%);stroke-opacity:1;stroke-miterlimit:10;" d="M 232.09375 150.367188 L 251.308594 149.140625 "/>
<path style="fill:none;stroke-width:1.2;stroke-linecap:butt;stroke-linejoin:miter;stroke:rgb(0%,0%,0%);stroke-opacity:1;stroke-miterlimit:10;" d="M 254.070312 154.636719 L 264.75 133.070312 "/>
<path style="fill:none;stroke-width:1.2;stroke-linecap:butt;stroke-linejoin:miter;stroke:rgb(0%,0%,0%);stroke-opacity:1;stroke-miterlimit:10;" d="M 264.75 133.070312 L 251.410156 113.035156 "/>
<path style="fill:none;stroke-width:1.2;stroke-linecap:butt;stroke-linejoin:miter;stroke:rgb(0%,0%,0%);stroke-opacity:1;stroke-miterlimit:10;" d="M 258.703125 134.203125 L 248.03125 118.179688 "/>
</g>
</svg>

<svg xmlns="http://www.w3.org/2000/svg" xmlns:xlink="http://www.w3.org/1999/xlink" width="300pt" height="300pt" viewBox="0 0 300 300"><defs><symbol overflow="visible"><path d="M.453 1.594v-7.938h4.5v7.938zm.5-.5h3.5v-6.938h-3.5zm0 0"/></symbol><symbol overflow="visible" id="a"><path d="M3.547-5.953c-.65 0-1.164.242-1.547.72-.375.48-.563 1.13-.563 1.952 0 .835.188 1.49.563 1.967.383.48.898.72 1.547.72.644 0 1.156-.24 1.53-.72.376-.476.564-1.132.564-1.968 0-.822-.187-1.474-.562-1.954-.375-.477-.887-.72-1.53-.72zm0-.734c.914 0 1.648.312 2.203.937.55.617.828 1.438.828 2.47 0 1.042-.277 1.87-.828 2.483-.555.617-1.29.922-2.203.922-.93 0-1.668-.305-2.22-.922C.774-1.41.5-2.237.5-3.28c0-1.033.273-1.853.828-2.47.55-.625 1.29-.938 2.22-.938zm0 0"/></symbol><symbol overflow="visible" id="b"><path d="M.89-6.563H2.08l2.906 5.485v-5.484h.86V0H4.656L1.75-5.484V0H.89zm0 0"/></symbol></defs><g><path fill="#fff" d="M0 0h300v300H0z"/><path d="M149.984 223.953l5.34-10.785" stroke-width="1.2" stroke="#000" stroke-miterlimit="10" fill="none"/><path d="M155.324 213.168l5.34-10.785M160.664 202.383l-6.672-10.016" stroke-width="1.2" stroke="#f00" stroke-miterlimit="10" fill="none"/><path d="M153.992 192.367l-6.668-10.015" stroke-width="1.2" stroke="#000" stroke-miterlimit="10" fill="none"/><path d="M156.664 196.883h8v11h-8zm0 0" fill="#fff"/><use xlink:href="#a" x="156.664" y="205.546" fill="#f00"/><path d="M147.324 182.352L158 160.785M158 160.785l-6.668-10.015" stroke-width="1.2" stroke="#000" stroke-miterlimit="10" fill="none"/><path d="M151.332 150.77l-6.672-10.016M144.66 140.754L150 129.97" stroke-width="1.2" stroke="#00f" stroke-miterlimit="10" fill="none"/><path d="M150 129.97l5.34-10.786M120.645 142.29l12.007-.77" stroke-width="1.2" stroke="#000" stroke-miterlimit="10" fill="none"/><path d="M132.652 141.52l12.008-.766" stroke-width="1.2" stroke="#00f" stroke-miterlimit="10" fill="none"/><path d="M141.66 135.254h7v11h-7zm0 0" fill="#fff"/><use xlink:href="#b" x="141.66" y="143.917" fill="#00f"/><path d="M155.34 119.184l12.008-.77" stroke-width="1.2" stroke="#000" stroke-miterlimit="10" fill="none"/><path d="M167.348 118.414l12.007-.766" stroke-width="1.2" stroke="#00f" stroke-miterlimit="10" fill="none"/><path d="M157.38 113.38l9.604-.614" stroke-width="1.2" stroke="#000" stroke-miterlimit="10" fill="none"/><path d="M166.984 112.766l9.61-.618" stroke-width="1.2" stroke="#00f" stroke-miterlimit="10" fill="none"/><path d="M142 99.152l13.34 20.032" stroke-width="1.2" stroke="#000" stroke-miterlimit="10" fill="none"/><path d="M179.355 117.648l5.34-10.785" stroke-width="1.2" stroke="#00f" stroke-miterlimit="10" fill="none"/><path d="M184.695 106.863l5.34-10.785" stroke-width="1.2" stroke="#000" stroke-miterlimit="10" fill="none"/><path d="M176.355 112.148h7v11h-7zm0 0" fill="#fff"/><use xlink:href="#b" x="176.355" y="120.812" fill="#00f"/><path d="M190.035 96.078l-6.672-10.016" stroke-width="1.2" stroke="#000" stroke-miterlimit="10" fill="none"/><path d="M183.363 86.063l-6.668-10.016" stroke-width="1.2" stroke="#00f" stroke-miterlimit="10" fill="none"/><path d="M183.988 97.215l-5.336-8.012" stroke-width="1.2" stroke="#000" stroke-miterlimit="10" fill="none"/><path d="M178.652 89.203l-5.336-8.016" stroke-width="1.2" stroke="#00f" stroke-miterlimit="10" fill="none"/><path d="M190.035 96.078l12.008-.766" stroke-width="1.2" stroke="#000" stroke-miterlimit="10" fill="none"/><path d="M202.043 95.313l12.008-.77" stroke-width="1.2" stroke="#f00" stroke-miterlimit="10" fill="none"/><path d="M176.695 76.047l-12.007.77" stroke-width="1.2" stroke="#00f" stroke-miterlimit="10" fill="none"/><path d="M164.688 76.816l-12.012.77" stroke-width="1.2" stroke="#000" stroke-miterlimit="10" fill="none"/><path d="M173.695 70.547h7v11h-7zm0 0" fill="#fff"/><use xlink:href="#b" x="173.695" y="79.21" fill="#00f"/><path d="M152.676 77.586L142 99.152M156.684 82.254l-8.543 17.254M142 99.152l-12.008.77" stroke-width="1.2" stroke="#000" stroke-miterlimit="10" fill="none"/><path d="M129.992 99.922l-12.012.766M117.98 100.688l-5.34 10.785" stroke-width="1.2" stroke="#00f" stroke-miterlimit="10" fill="none"/><path d="M112.64 111.473l-5.335 10.785" stroke-width="1.2" stroke="#000" stroke-miterlimit="10" fill="none"/><path d="M121.988 105.36l-4.27 8.624" stroke-width="1.2" stroke="#00f" stroke-miterlimit="10" fill="none"/><path d="M117.72 113.984l-4.275 8.63" stroke-width="1.2" stroke="#000" stroke-miterlimit="10" fill="none"/><path d="M114.98 95.188h7v11h-7zm0 0" fill="#fff"/><use xlink:href="#b" x="114.98" y="103.851" fill="#00f"/><path d="M107.305 122.258l13.34 20.03M107.305 122.258l-24.02 1.535M118.105 141.03l-5.34 10.786" stroke-width="1.2" stroke="#000" stroke-miterlimit="10" fill="none"/><path d="M112.766 151.816l-5.34 10.786" stroke-width="1.2" stroke="#f00" stroke-miterlimit="10" fill="none"/><path d="M123.18 143.547l-5.34 10.78" stroke-width="1.2" stroke="#000" stroke-miterlimit="10" fill="none"/><path d="M117.84 154.328l-5.336 10.785" stroke-width="1.2" stroke="#f00" stroke-miterlimit="10" fill="none"/><path d="M101.965 158.36h8v11h-8zm0 0" fill="#fff"/><use xlink:href="#a" x="101.965" y="167.022" fill="#f00"/><path d="M83.285 123.793l-13.34-20.03M77.238 124.93l-10.672-16.024M72.61 145.363l10.675-21.57M69.945 103.762l-24.015 1.54M45.93 105.3l-10.68 21.567M49.934 109.97l-8.54 17.253M35.25 126.867l13.34 20.03M48.59 146.898l24.02-1.535M50.63 141.094l19.214-1.227" stroke-width="1.2" stroke="#000" stroke-miterlimit="10" fill="none"/><path d="M214.05 94.543l6.673 10.016" stroke-width="1.2" stroke="#f00" stroke-miterlimit="10" fill="none"/><path d="M220.723 104.56l6.668 10.014" stroke-width="1.2" stroke="#000" stroke-miterlimit="10" fill="none"/><path d="M210.05 89.043h8v11h-8zm0 0" fill="#fff"/><use xlink:href="#a" x="210.051" y="97.706" fill="#f00"/><path d="M227.39 114.574l-10.675 21.567M231.398 119.242l-8.543 17.254M251.41 113.035l-24.02 1.54M216.715 136.14l13.34 20.036M230.055 156.176l24.015-1.54M232.094 150.367l19.215-1.226M254.07 154.637l10.68-21.567M264.75 133.07l-13.34-20.035M258.703 134.203L248.03 118.18" stroke-width="1.2" stroke="#000" stroke-miterlimit="10" fill="none"/></g></svg>
